Static/heading-top-icon.svg

<svg width="43" height="43" viewBox="0 0 43 43" fill="none" xmlns="http://www.w3.org/2000/svg">
<path fill-rule="evenodd" clip-rule="evenodd" d="M24.7714 4.87747C25.5512 4.83959 26.2687 5.04255 26.9141 5.44082C27.1805 5.60492 27.3429 5.98261 27.1171 6.23951C26.3796 7.07921 26.7449 7.97434 26.9637 8.82826C28.3554 14.2605 30.6083 19.3529 33.2465 24.2853C34.209 26.0856 35.2413 27.8489 36.2313 29.6343C36.3655 29.8768 36.5979 30.0911 36.3334 30.4462C36.0694 30.8005 35.7954 30.5249 35.5621 30.5839C33.7912 31.0327 33.128 29.7194 32.3113 28.6373C28.1804 23.1647 25.5082 17.0288 23.9298 10.3976C23.641 9.18419 23.4739 7.95033 23.5893 6.70306C23.6632 5.90843 23.908 5.18203 24.7714 4.87747Z" fill="#8FD348"/>
<path fill-rule="evenodd" clip-rule="evenodd" d="M12.0451 19.0565C12.1605 18.4769 12.426 18.2052 12.9789 18.2877C13.522 18.3687 13.8289 18.5756 13.9696 19.1746C14.2708 20.4556 15.1849 21.4003 16.0173 22.3595C18.9474 25.7379 22.1203 28.8899 25.2456 32.0861C25.4915 32.3378 25.7596 32.5814 25.642 33.0199C25.4997 33.5537 25.0748 33.169 24.8172 33.3124C23.9687 33.7844 23.3786 33.2484 22.799 32.7612C19.7902 30.231 16.7182 27.7663 14.2446 24.6742C13.4332 23.6598 12.6518 22.6268 11.9758 21.5136C11.6769 21.021 11.9213 20.3597 11.3401 19.9298C11.1033 19.7549 11.0923 19.2192 11.2943 18.8383C11.3991 18.6404 11.4962 18.391 11.7484 18.4178C12.0444 18.4492 11.9322 18.7658 12.0451 19.0565Z" fill="#8FD348"/>
<path fill-rule="evenodd" clip-rule="evenodd" d="M1.43685 29.9095C2.48907 29.7531 3.18195 30.0361 3.90347 30.6486C5.29345 31.8287 7.03374 32.4038 8.73591 32.9988C10.9858 33.7857 13.2781 34.421 15.6229 34.8702C16.2171 34.9837 16.7937 35.2054 17.3648 35.4142C17.5823 35.4936 17.841 35.617 17.7221 35.9627C17.6256 36.2445 17.4256 36.259 17.1609 36.3248C15.0972 36.8377 13.1572 36.0852 11.2061 35.701C8.54625 35.1771 5.94575 34.3887 3.51782 33.1295C2.62685 32.6672 1.80694 32.1063 1.07283 31.4241C0.758296 31.1315 0.514814 30.811 0.650116 30.3335C0.798843 29.81 1.19531 29.8788 1.43685 29.9095Z" fill="#8FD348"/>
</svg>

<svg xmlns="http://www.w3.org/2000/svg" width="43" height="43" fill="none"><path fill="#8FD348" fill-rule="evenodd" d="M24.771 4.877a3.674 3.674 0 0 1 2.143.564c.266.164.429.542.203.799-.737.84-.372 1.734-.153 2.588 1.391 5.433 3.644 10.525 6.282 15.457.963 1.8 1.995 3.564 2.985 5.35.134.242.367.456.102.811-.264.354-.538.079-.77.138-1.772.449-2.435-.865-3.252-1.947-4.13-5.472-6.803-11.608-8.381-18.24-.289-1.213-.456-2.447-.34-3.694.073-.795.318-1.521 1.181-1.826ZM12.045 19.056c.116-.58.381-.85.934-.768.543.08.85.288.99.887.302 1.28 1.216 2.225 2.048 3.184 2.93 3.379 6.103 6.53 9.229 9.727.245.252.514.495.396.934-.142.534-.567.149-.825.292-.848.472-1.438-.064-2.018-.55-3.009-2.531-6.08-4.996-8.554-8.088-.812-1.014-1.593-2.047-2.27-3.16-.298-.493-.054-1.154-.635-1.584-.237-.175-.248-.71-.046-1.092.105-.198.202-.447.454-.42.296.031.184.348.297.639ZM1.437 29.91c1.052-.157 1.745.126 2.466.739 1.39 1.18 3.13 1.755 4.833 2.35a48.467 48.467 0 0 0 6.887 1.871c.594.114 1.17.335 1.742.544.217.08.476.203.357.549-.096.282-.296.296-.561.362-2.064.513-4.004-.24-5.955-.624-2.66-.524-5.26-1.312-7.688-2.572a11.017 11.017 0 0 1-2.445-1.705c-.315-.293-.558-.613-.423-1.09.149-.524.545-.455.787-.424Z" clip-rule="evenodd"/></svg>
